X:1
T:Title
C:Composer
Z:Genoteerd door Van der Elst Johan
L:1/8
Q:1/4=126
M:6/8
I:linebreak $
K:G
V:1 treble nm="Viool" snm="Vl."
V:1
 B2 A B2 A | G2 G GAB | c2 B c2 B | A2 A A2 B |$ c2 c cde | edc Bcd | dcB AGA | G2 G G3!fine! ||$ %8
 d2 d dcB | e2 e e3 | c2 c cBA | d2 d d3 |$ G2 D B2 G | d2 B g2 d | edc BAG | FGA D3!D.C.! |] %16
